diversify.svg

<svg fill="currentColor" viewBox="0 0 24 24"><path d="M19 2v2h-7a2 2 0 0 0-2 2v3h2V6h7v2l3-3zm0 7v2h-5v2h5v2l3-3zm-7.95 1c-1.11 0-2.01.87-2.02 2s.87 2 1.97 2c1.11 0 2-.89 2-2 0-1.09-.87-1.97-1.95-2M2 11v2h6v-2zm8 4v3a2 2 0 0 0 2 2h7v2l3-3-3-3v2h-7v-3z"/></svg>

<svg  viewBox="0 0 24 24" fill="currentColor"><path  d="M19 2V4H12C10.9 4 10 4.89 10 6V9H12V6H19V8L22 5L19 2M19 9V11H14V13H19V15L22 12L19 9M11.05 10C9.94 10 9.04 10.87 9.03 12S9.9 14 11 14C12.11 14 13 13.11 13 12C13 10.91 12.13 10.03 11.05 10M2 11V13H8V11H2M10 15V18C10 19.11 10.9 20 12 20H19V22L22 19L19 16V18H12V15H10Z"/></svg>
